img/SAUNA/icon/plus.svg

<svg width="32" height="32" viewBox="0 0 32 32" fill="none" xmlns="http://www.w3.org/2000/svg">
<circle cx="15" cy="15" r="15" fill="#FF8A00"/>
<path fill-rule="evenodd" clip-rule="evenodd" d="M15.75 8.25C15.75 7.83579 15.4142 7.5 15 7.5C14.5858 7.5 14.25 7.83579 14.25 8.25V14.25H8.25C7.83579 14.25 7.5 14.5858 7.5 15C7.5 15.4142 7.83579 15.75 8.25 15.75H14.25V21.75C14.25 22.1642 14.5858 22.5 15 22.5C15.4142 22.5 15.75 22.1642 15.75 21.75V15.75H21.75C22.1642 15.75 22.5 15.4142 22.5 15C22.5 14.5858 22.1642 14.25 21.75 14.25H15.75V8.25Z" fill="white"/>
</svg>

<svg width="32" height="32" viewBox="0 0 32 32" fill="none" xmlns="http://www.w3.org/2000/svg"><circle cx="15" cy="15" r="15" fill="#FF8A00"/><path fill-rule="evenodd" clip-rule="evenodd" d="M15.75 8.25a.75.75 0 00-1.5 0v6h-6a.75.75 0 000 1.5h6v6a.75.75 0 001.5 0v-6h6a.75.75 0 000-1.5h-6v-6z" fill="#fff"/></svg>
